X:1
T: Sally's Step Dance tune
N:from Sally's box playing
Z:Ian Hayden 2017
M:4/4
L:1/8
K:D
|:D2 FA dAFA|G2B2 G2B2|D2 FA dAFA|E2F2 E2F2|
D2 FA dAFA|G2B2 G2B2|A2 cB AGFE|"."D2"."D2 "."D4:|
|D2 FA dAFA|DEFA c2B2|D2 FA dAFA|E2F2 E4|
D2 FA dAFA|G2B2 G2B2|A2 cB AGFE|"."D2"."D2 "."D4|]
